austria/municipalities/70913.svg

<?xml version="1.0" encoding="UTF-8"?>
<!DOCTYPE svg PUBLIC "-//W3C//DTD SVG 1.1//EN" "http://www.w3.org/Graphics/SVG/1.1/DTD/svg11.dtd">
<svg xmlns="http://www.w3.org/2000/svg" version="1.1" width="166px" height="192px" style="shape-rendering:geometricPrecision; text-rendering:geometricPrecision; image-rendering:optimizeQuality; fill-rule:evenodd; clip-rule:evenodd" xmlns:xlink="http://www.w3.org/1999/xlink">
<g><path style="opacity:1" fill="#110d07" d="M -0.5,-0.5 C 54.8333,-0.5 110.167,-0.5 165.5,-0.5C 165.5,39.1667 165.5,78.8333 165.5,118.5C 157.529,159.138 133.196,183.471 92.5,191.5C 85.5,191.5 78.5,191.5 71.5,191.5C 30.4846,182.818 6.4846,157.818 -0.5,116.5C -0.5,77.5 -0.5,38.5 -0.5,-0.5 Z"/></g>
<g><path style="opacity:1" fill="#e6a51c" d="M 3.5,3.5 C 56.1667,3.5 108.833,3.5 161.5,3.5C 161.667,41.8348 161.5,80.1681 161,118.5C 155.521,150.972 137.355,172.805 106.5,184C 63.1233,194.057 30.9566,179.557 10,140.5C 6.97671,133.097 4.97671,125.431 4,117.5C 3.50001,79.5015 3.33335,41.5015 3.5,3.5 Z"/></g>
<g><path style="opacity:1" fill="#030201" d="M 10.5,11.5 C 25.1393,12.626 34.6393,20.2926 39,34.5C 41.0818,44.8251 43.0818,55.1584 45,65.5C 46.5707,67.9229 48.7374,69.2562 51.5,69.5C 51.2877,63.1992 54.121,60.8659 60,62.5C 62.1322,54.5898 66.4655,52.9232 73,57.5C 75.604,50.2803 80.4373,48.1136 87.5,51C 89.6166,52.7309 91.1166,54.8976 92,57.5C 98.1078,52.976 102.274,54.3093 104.5,61.5C 110.675,60.6775 113.675,63.3441 113.5,69.5C 116.988,68.8566 119.488,66.8566 121,63.5C 122.449,54.1197 124.116,44.7863 126,35.5C 129.501,22.3299 137.834,14.3299 151,11.5C 153.253,11.6313 155.419,12.1313 157.5,13C 149.099,16.405 143.933,22.5717 142,31.5C 141.283,35.1374 140.783,38.804 140.5,42.5C 141.391,51.3543 142.391,60.1876 143.5,69C 144.206,82.6036 138.206,91.6036 125.5,96C 131.927,98.1055 137.594,101.439 142.5,106C 146.242,107.985 149.909,107.818 153.5,105.5C 152.913,114.948 147.913,121.115 138.5,124C 139.716,125.74 141.382,126.74 143.5,127C 142.101,130.064 139.768,132.064 136.5,133C 131.743,133.81 127.076,133.476 122.5,132C 116.167,127 110.5,121.333 105.5,115C 102.862,112.892 100.528,113.059 98.5,115.5C 101.811,120.645 105.978,124.978 111,128.5C 115.827,135.201 115.661,141.701 110.5,148C 103.044,151.227 96.0436,155.227 89.5,160C 86.9426,162.892 84.776,166.059 83,169.5C 80.766,165.542 77.9327,162.042 74.5,159C 67.6628,154.747 60.6628,150.747 53.5,147C 49.7248,141.623 49.5581,136.123 53,130.5C 56.7002,126.465 60.7002,122.798 65,119.5C 67.2699,113.569 65.4366,112.069 59.5,115C 54.8106,120.687 49.8106,126.021 44.5,131C 35.7126,135.415 28.046,134.082 21.5,127C 23.6228,126.185 25.6228,125.185 27.5,124C 17.4648,121.492 12.1314,115.325 11.5,105.5C 15.0289,107.877 18.6955,108.044 22.5,106C 27.406,101.439 33.0727,98.1055 39.5,96C 26.3335,91.1912 20.6668,81.6912 22.5,67.5C 22.6961,59.4605 23.3628,51.4605 24.5,43.5C 25.2779,29.9212 19.9446,19.7546 8.5,13C 9.4158,12.7216 10.0825,12.2216 10.5,11.5 Z"/></g>
<g><path style="opacity:1" fill="#fdfdfd" d="M -0.5,116.5 C 6.4846,157.818 30.4846,182.818 71.5,191.5C 47.5,191.5 23.5,191.5 -0.5,191.5C -0.5,166.5 -0.5,141.5 -0.5,116.5 Z"/></g>
<g><path style="opacity:1" fill="#fcfcfc" d="M 165.5,118.5 C 165.5,142.833 165.5,167.167 165.5,191.5C 141.167,191.5 116.833,191.5 92.5,191.5C 133.196,183.471 157.529,159.138 165.5,118.5 Z"/></g>
</svg>

<svg xmlns="http://www.w3.org/2000/svg" width="166" height="192" style="shape-rendering:geometricPrecision;text-rendering:geometricPrecision;image-rendering:optimizeQuality;fill-rule:evenodd;clip-rule:evenodd"><path style="opacity:1" fill="#110d07" d="M-.5-.5h166v119c-7.971 40.638-32.304 64.971-73 73h-21c-41.015-8.682-65.015-33.682-72-75V-.5z"/><path style="opacity:1" fill="#e6a51c" d="M3.5 3.5h158c.167 38.335 0 76.668-.5 115-5.479 32.472-23.645 54.305-54.5 65.5-43.377 10.057-75.543-4.443-96.5-43.5a89.502 89.502 0 0 1-6-23c-.5-37.999-.667-75.999-.5-114z"/><path style="opacity:1" fill="#030201" d="M10.5 11.5c14.64 1.126 24.14 8.793 28.5 23a2029.49 2029.49 0 0 1 6 31c1.57 2.423 3.737 3.756 6.5 4-.212-6.3 2.621-8.634 8.5-7 2.132-7.91 6.466-9.577 13-5 2.604-7.22 7.437-9.386 14.5-6.5 2.117 1.73 3.617 3.898 4.5 6.5 6.108-4.524 10.274-3.19 12.5 4 6.175-.822 9.175 1.844 9 8 3.488-.643 5.988-2.643 7.5-6a606.416 606.416 0 0 1 5-28c3.501-13.17 11.834-21.17 25-24 2.253.131 4.419.631 6.5 1.5-8.401 3.405-13.567 9.572-15.5 18.5a93.893 93.893 0 0 0-1.5 11c.891 8.854 1.891 17.688 3 26.5.706 13.604-5.294 22.604-18 27 6.427 2.106 12.094 5.439 17 10 3.742 1.985 7.409 1.818 11-.5-.587 9.448-5.587 15.615-15 18.5 1.216 1.74 2.882 2.74 5 3-1.399 3.064-3.732 5.064-7 6-4.757.81-9.424.476-14-1-6.333-5-12-10.667-17-17-2.638-2.108-4.972-1.941-7 .5a46.415 46.415 0 0 0 12.5 13c4.827 6.701 4.661 13.201-.5 19.5a108.973 108.973 0 0 0-21 12 46.431 46.431 0 0 0-6.5 9.5 40.622 40.622 0 0 0-8.5-10.5 324.64 324.64 0 0 0-21-12c-3.775-5.377-3.942-10.877-.5-16.5 3.7-4.035 7.7-7.702 12-11 2.27-5.931.437-7.431-5.5-4.5a171.211 171.211 0 0 1-15 16c-8.787 4.415-16.454 3.082-23-4a34.112 34.112 0 0 0 6-3c-10.035-2.508-15.369-8.675-16-18.5 3.529 2.377 7.195 2.544 11 .5 4.906-4.561 10.573-7.894 17-10-13.166-4.809-18.833-14.309-17-28.5.196-8.04.863-16.04 2-24 .778-13.579-4.555-23.745-16-30.5.916-.278 1.582-.778 2-1.5z"/><path style="opacity:1" fill="#fdfdfd" d="M-.5 116.5c6.985 41.318 30.985 66.318 72 75h-72v-75z"/><path style="opacity:1" fill="#fcfcfc" d="M165.5 118.5v73h-73c40.696-8.029 65.029-32.362 73-73z"/></svg>
